outputs/icons/charts/chart_waterfall_round.svg

<svg xmlns="http://www.w3.org/2000/svg" width="1200" height="1200" fill="none"><path fill="#000" d="M950 150H250c-55 0-100 45-100 100v700c0 55 45 100 100 100h700c55 0 100-45 100-100V250c0-55-45-100-100-100"/><path fill="#fff" d="M550 300c0-27.614 22.385-50 50-50h100c27.615 0 50 22.386 50 50s-22.385 50-50 50H600c-27.615 0-50-22.386-50-50M550 450c0-27.614 22.385-50 50-50h200c27.615 0 50 22.386 50 50s-22.385 50-50 50H600c-27.615 0-50-22.386-50-50M550 600c0-27.615 22.385-50 50-50h300c27.615 0 50 22.385 50 50s-22.385 50-50 50H600c-27.615 0-50-22.385-50-50M350 900c0 27.615 22.386 50 50 50h100c27.615 0 50-22.385 50-50s-22.385-50-50-50H400c-27.614 0-50 22.385-50 50M250 750c0 27.615 22.386 50 50 50h200c27.615 0 50-22.385 50-50s-22.385-50-50-50H300c-27.614 0-50 22.385-50 50"/></svg>

<svg width="1200" height="1200" viewBox="0 0 1200 1200" fill="none" xmlns="http://www.w3.org/2000/svg"><path d="M950 150H250C195 150 150 195 150 250V950C150 1005 195 1050 250 1050H950C1005 1050 1050 1005 1050 950V250C1050 195 1005 150 950 150Z" fill="#1D1E23"/><path width="4" fill="white" d="M600 250H700A50 50 0 0 1 750 300V300A50 50 0 0 1 700 350H600A50 50 0 0 1 550 300V300A50 50 0 0 1 600 250z"/><path width="6" fill="white" d="M600 400H800A50 50 0 0 1 850 450V450A50 50 0 0 1 800 500H600A50 50 0 0 1 550 450V450A50 50 0 0 1 600 400z"/><path width="8" fill="white" d="M600 550H900A50 50 0 0 1 950 600V600A50 50 0 0 1 900 650H600A50 50 0 0 1 550 600V600A50 50 0 0 1 600 550z"/><path width="4" fill="white" d="M50 0H150A50 50 0 0 1 200 50V50A50 50 0 0 1 150 100H50A50 50 0 0 1 0 50V50A50 50 0 0 1 50 0z"/><path width="6" fill="white" d="M50 0H250A50 50 0 0 1 300 50V50A50 50 0 0 1 250 100H50A50 50 0 0 1 0 50V50A50 50 0 0 1 50 0z"/></svg>
